X:1
T:Pass Around Your Bottle
M:2/4
L:1/8
K:G
 D2| E3/2 E/2 E3/2 E/2| G^G z E| ^G2 G^D| E4| z2 z ^A| B4| d2 eg|B-A G B-|\
 B4| z4| B4|^d-ee-g|B-A GA| A/2- B3/2 BG| E2 B,^D| EE E2| ^G2A-^D|\
 E4| z4| z2||
